public/svg/love_2.svg

<svg width="304" height="149" viewBox="0 0 304 149" fill="none" xmlns="http://www.w3.org/2000/svg">
<g clip-path="url(#clip0)">
<path d="M292.56 34.8406C292.451 34.4237 292.184 34.0656 291.815 33.8418C291.447 33.6181 291.006 33.5461 290.585 33.6413C282.756 35.4077 275.835 40.0337 268.056 41.3773C274.95 36.5873 281.773 29.5109 281.084 21.2302C280.955 19.715 278.728 18.6176 277.9 20.3242C270.906 34.714 252.083 33.2405 238.712 31.3763C228.818 30.0017 219.123 27.6203 209.16 26.7329C198.078 25.7491 164.323 22.6093 166.429 41.4256C165.986 48.9055 168.498 57.1877 171.081 64.2256C161.042 68.1143 150.848 71.0246 139.978 72.221C134.9 72.7762 129.791 73.2075 124.676 73.4213C123.846 68.2008 123.249 62.5734 121.984 57.2652L122.008 57.2053C124.762 47.9678 115.043 42.5413 107.468 42.0645C91.3834 41.0915 75.4257 48.6735 60.1142 52.4536C40.8065 57.2056 20.6428 61.7237 5.69167 45.3032C5.00066 44.5556 3.33841 45.0722 3.44725 46.215C5.30638 63.6191 20.2615 71.5646 36.0175 73.6828C28.1811 79.7099 16.671 80.8005 7.35356 82.7699C7.12094 82.8285 6.90487 82.9396 6.72198 83.0948C6.53908 83.2499 6.39425 83.4449 6.29864 83.6648C6.20302 83.8846 6.15917 84.1235 6.17046 84.3629C6.18174 84.6024 6.24787 84.836 6.36375 85.0459C13.1805 95.9559 28.9586 95.1449 40.1231 93.9971C46.2931 93.3634 52.4492 92.5357 58.3409 90.5394C66.5149 87.7991 76.1015 82.6202 84.7234 86.2933C84.9246 86.3834 85.1437 86.4266 85.3642 86.4197C85.5846 86.4128 85.8006 86.356 85.9959 86.2535C88.543 93.8408 90.2895 101.578 89.0666 109.865C89.0575 110.264 89.181 110.655 89.4178 110.977C89.6547 111.298 89.9914 111.532 90.3755 111.641C95.8909 112.922 101.136 115.535 106.8 116.164C113.822 116.936 121.132 115.219 128.125 114.785C142.161 113.92 156.214 113.58 169.91 110.085C180.895 107.211 191.66 103.553 202.121 99.1388C208.434 96.515 215.526 93.2462 219.39 87.4249C220.533 87.2767 221.535 86.1365 220.77 84.9242C220.923 84.5805 221.077 84.2422 221.205 83.8855C221.573 82.8798 220.234 82.2239 219.527 82.8185C217.411 78.6949 216.04 74.2302 215.477 69.63C227.884 69.6971 240.406 70.9844 252.497 67.4811C258.786 65.6316 264.937 63.3424 270.905 60.6304C280.307 56.4449 296.899 47.7027 292.56 34.8406ZM169.7 43.9376C176.671 44.3535 183.488 43.6617 190.401 42.5847C193.896 42.0288 197.417 41.5249 200.865 40.7357C202.358 40.3917 203.829 39.9392 205.332 39.6554L208.305 39.2385C211.459 42.2118 211.587 43.9646 208.687 44.4966C207.755 44.8748 207.595 45.881 207.917 46.7096C199.381 52.2147 190.045 56.0085 180.67 60.1897C178.684 61.0661 176.703 61.9416 174.709 62.7406C172.628 56.5982 171.672 50.0582 169.7 43.9376ZM48.4442 89.1484C37.6955 91.0764 18.7682 94.9047 10.4005 85.3175C20.79 83.2112 32.8612 81.4877 40.4208 73.6495C40.6151 73.4505 40.7481 73.1999 40.804 72.9276C40.8598 72.6553 40.8362 72.3727 40.7358 72.1134C40.6355 71.8542 40.4627 71.6292 40.2381 71.4654C40.0134 71.3015 39.7463 71.2056 39.4687 71.1891C25.4468 70.1347 10.4022 64.378 6.75931 50.0768C18.033 60.3733 31.5505 60.9363 46.7122 58.2953C58.3395 56.2837 69.7146 53.2865 81.0347 49.9785C89.3294 47.5385 97.8763 44.4978 106.661 44.8215C111.23 44.9805 115.742 45.9835 117.84 50.4698C118.04 50.8989 118.215 51.3389 118.364 51.7877C118.287 53.3846 118.298 54.9845 118.397 56.5801C118.064 57.2726 117.588 57.8868 117.001 58.3826C113.141 61.8325 105.838 61.8673 101.037 62.3618C97.5209 62.7192 78.5059 61.7639 78.5304 67.5609C78.5277 67.8453 78.6176 68.1229 78.7865 68.3518C78.9554 68.5807 79.1942 68.7485 79.4669 68.8299L79.6749 68.9033C81.1593 73.3696 82.9272 77.7852 84.5537 82.2289C72.5952 78.313 60.1341 87.0372 48.4634 89.1286L48.4442 89.1484ZM120.853 73.5417C117.498 73.6045 114.127 73.5689 110.777 73.3842C101.017 72.8515 92.776 70.6927 84.082 67.0591C85.6222 66.9038 87.1655 66.6976 88.7234 66.618C93.5755 66.3732 98.4382 66.407 103.279 65.9846C107.802 65.6128 114.726 64.848 118.845 61.5812C119.425 65.6195 120.219 69.6576 120.873 73.5218L120.853 73.5417ZM217.088 86.1377C212.095 91.8133 203.95 95.0198 197.186 97.5921C186.823 101.527 176.259 105.353 165.428 107.754C152.782 110.555 139.849 110.701 126.979 111.531C121.044 111.915 114.995 113.308 109.047 112.976C103.388 112.66 98.2204 110.147 92.8263 108.606C94.3614 94.9107 88.9877 79.1081 82.0685 67.4129L82.1232 67.4042C88.1306 73.1185 98.4509 74.8456 106.215 75.6623C111.496 76.1916 116.804 76.3918 122.11 76.2618C122.529 76.4005 122.983 76.3936 123.397 76.2421C128.982 76.0882 134.55 75.6566 140.087 75.0956C153.621 73.7167 166.376 69.8724 178.824 64.4515C189.448 59.8362 202.563 55.716 211.554 47.7791C210.111 53.2041 211.197 60.878 211.58 65.0487C212.136 71.1198 212.718 81.0205 217.102 86.1241L217.088 86.1377ZM265.149 58.8274C259.961 61.0712 254.612 62.9242 249.148 64.3707C238.045 67.106 226.412 66.0135 215.082 66.2236C214.444 58.6859 215.025 50.8758 215.475 44.0057C215.479 43.8996 215.462 43.7937 215.425 43.6941C215.509 43.4542 215.498 43.191 215.392 42.9595C216.704 39.8478 215.477 36.439 210.145 35.499C205.049 34.6 199.018 37.1285 194.013 37.8963C186.103 39.1888 178.105 39.8705 170.09 39.9354C168.63 24.267 209.934 29.9783 218.711 31.5585C234.586 34.4202 261.697 41.9514 275.43 29.55C272.149 34.8078 266.011 39.1355 261.466 41.9097C261.18 42.0782 260.956 42.3345 260.828 42.6404C260.699 42.9462 260.673 43.2854 260.754 43.6072C260.834 43.929 261.016 44.2163 261.273 44.4262C261.53 44.6362 261.848 44.7576 262.179 44.7723C272.213 45.0487 280.34 39.547 289.751 37.1761C291.491 48.4002 273.257 55.4924 265.149 58.8274Z" fill="#3A3C51"/>
<path d="M98.9708 127.452C90.5996 139.04 77.5319 132.593 67.0849 127.989C62.5062 125.892 57.6877 124.364 52.737 123.438C55.147 117.881 56.5236 111.932 56.7993 105.883C56.8254 105.576 56.7361 105.27 56.5489 105.025C56.3617 104.781 56.09 104.614 55.7866 104.559C55.8132 104.27 55.7522 103.98 55.6115 103.726C55.4709 103.472 55.257 103.267 54.9978 103.136C54.7386 103.006 54.4461 102.956 54.1584 102.994C53.8706 103.032 53.6009 103.156 53.3843 103.349C48.5794 107.594 42.0522 115.716 34.7714 114.021C32.5578 113.504 30.4476 111.839 30.0272 109.513C29.5578 106.914 31.4794 105.454 33.7081 104.937C33.9071 105.714 34.0334 106.508 34.0854 107.309C34.1767 109.083 36.9465 109.147 36.8543 107.368C36.7477 105.906 36.4876 104.46 36.0783 103.052C36.0058 102.76 35.8412 102.499 35.6088 102.308C35.3763 102.117 35.0884 102.006 34.7877 101.991C31.4792 102.349 28.1453 103.781 27.3489 107.344C26.674 110.365 28.326 113.488 30.7755 115.206C39.0406 121.009 47.8847 112.149 53.9675 106.557C53.6193 112.256 52.2262 117.843 49.8577 123.039C44.4531 122.444 38.9847 123.19 33.9373 125.212C28.3661 127.46 14.9242 134.602 20.0369 142.768C24.6169 150.088 35.5621 144.458 40.2461 140.546C44.9959 136.498 48.8587 131.515 51.5927 125.907C59.5467 127.215 66.8142 131.154 74.3568 134.107C78.9685 135.913 83.9813 137.419 88.9908 136.824C94.3002 136.21 98.3218 133.07 101.379 128.84C102.392 127.418 100.004 126.015 98.9708 127.452ZM41.3144 135.73C38.009 139.176 33.818 142.555 28.9502 143.301C26.3353 143.717 22.4523 143.214 21.8617 140.029C21.1547 136.218 25.6115 132.852 28.3418 131.152C33.3506 128.012 39.1058 125.757 45.0617 125.505C46.2406 125.455 47.4215 125.473 48.5983 125.559C46.6547 129.271 44.2031 132.694 41.3144 135.73Z" fill="#3A3C51"/>
<path d="M283.668 85.5011C278.243 85.1448 272.812 86.1316 267.859 88.374C265.295 85.5803 263.075 82.49 261.246 79.169C267.598 82.5361 277.053 81.0774 282.366 76.8528C284.775 74.9339 287.972 71.3709 287.184 67.9653C286.154 63.4996 279.986 65.0297 277.055 65.9611C276.767 66.0419 276.511 66.2088 276.321 66.4394C276.131 66.6701 276.017 66.9533 275.993 67.251C275.768 68.9065 276.488 69.4141 277.492 70.4707C278.703 71.7745 280.683 69.8343 279.466 68.5313C279.352 68.4091 279.229 68.2956 279.098 68.1919C281.346 67.5486 284.891 66.8447 284.423 69.5085C283.955 72.1724 281.123 74.6124 278.909 75.8893C272.8 79.4446 261.688 79.62 258.378 72.2437C257.679 70.6734 255.44 71.8646 255.89 73.3904C255.82 73.6608 255.838 73.9467 255.942 74.2061C258.08 79.8717 261.235 85.1002 265.249 89.6353C260.83 92.0514 256.724 94.9989 253.021 98.4121C244.501 106.033 234.078 116.215 222.542 107.794C221.108 106.749 219.273 108.823 220.713 109.872C224.932 112.945 229.723 114.683 234.967 113.619C239.911 112.614 244.205 109.634 248.036 106.497C254.29 101.349 259.977 95.3498 267.133 91.6393C271.472 96.1222 276.69 99.6617 282.461 102.036C288.129 104.307 300.279 106.259 302.363 97.8794C304.651 88.5312 289.651 85.9116 283.668 85.5011ZM294.009 101.147C289.151 101.953 284.118 100.041 279.906 97.7852C276.214 95.7966 272.818 93.3034 269.815 90.3776C270.91 89.9258 272.03 89.538 273.17 89.2164C278.905 87.6094 285.081 87.9667 290.817 89.3973C293.942 90.1782 299.221 91.9841 299.731 95.8263C300.151 99.0326 296.61 100.717 293.998 101.149L294.009 101.147Z" fill="#3A3C51"/>
<path d="M126.916 103.756C124.15 101.316 123.809 97.5529 121.919 94.5524C121.558 93.9793 121.132 93.4508 120.647 92.9779C121.826 89.4247 122.807 85.809 123.586 82.1475C123.987 80.4023 121.332 79.6475 120.924 81.3882C120.218 84.4206 119.458 87.9714 118.319 91.3866C116.781 90.6999 115.084 90.4482 113.413 90.6591C106.037 91.5015 103.493 100.128 105.496 106.334C105.59 106.685 105.816 106.987 106.127 107.177C106.438 107.366 106.81 107.429 107.166 107.351C113.367 105.995 117.032 101.388 119.455 95.9195C120.14 97.0602 120.708 98.2674 121.15 99.5228C122.077 101.825 123.026 104.022 124.935 105.691C126.27 106.891 128.259 104.938 126.916 103.756ZM107.88 104.29C106.944 98.8674 109.842 91.5857 116.554 93.6232C116.844 93.7117 117.125 93.8265 117.394 93.9661C115.479 98.6423 112.62 102.706 107.879 104.284L107.88 104.29Z" fill="#3A3C51"/>
<path d="M136.963 86.813C136.074 86.6369 135.155 86.6952 134.296 86.9822C133.437 87.2692 132.667 87.775 132.063 88.4498C130.872 89.8107 130.501 91.5734 130.496 93.3397C129.68 94.2632 129.106 95.3736 128.823 96.5723C128.54 97.7711 128.557 99.0211 128.874 100.211C129.601 103.301 132.217 106.629 135.734 106.171C140.295 105.58 142.963 99.3214 143.099 95.3092C143.231 91.5218 140.917 87.5181 136.963 86.813ZM140.313 94.3342C140.4 96.2864 139.929 98.2232 138.958 99.9191C138.295 101.185 137.351 102.798 135.914 103.318C134 104.014 132.441 102.009 131.839 100.44C131.361 99.2513 131.3 97.9354 131.665 96.7071C131.894 96.7354 132.126 96.7115 132.344 96.6372C132.562 96.5629 132.761 96.4401 132.925 96.2781C133.088 96.1161 133.213 95.919 133.29 95.7018C133.366 95.4847 133.393 95.253 133.367 95.0242C133.338 94.8438 133.307 94.647 133.307 94.4395C133.648 94.1874 134.021 93.9812 134.416 93.8261C136.067 93.2048 135.425 90.5101 133.762 91.1277L133.646 91.1741C133.794 90.6332 134.13 90.1627 134.594 89.8474C135.058 89.5321 135.62 89.3928 136.177 89.4545C138.57 89.6513 140.12 92.1342 140.313 94.3342Z" fill="#3A3C51"/>
<path d="M165.247 79.6034C165.098 79.3407 164.867 79.1332 164.591 79.0117C164.314 78.8901 164.005 78.8611 163.71 78.9287C155.231 80.1371 156.562 88.3661 155.48 94.7201C155.332 95.5899 154.881 98.01 153.555 97.9575C152.425 97.9074 151.911 95.4166 151.69 94.5887C150.845 91.3601 150.728 88.0441 150.246 84.769C149.966 83.0088 147.296 83.6745 147.545 85.4227C148.033 88.736 148.75 104.848 155.718 99.9226C161.597 95.765 155.379 84.3507 162.925 81.9625C162.793 82.3848 162.636 82.7991 162.455 83.203C161.864 84.8886 164.524 85.637 165.116 83.9623C165.708 82.2877 165.956 81.3458 165.247 79.6034Z" fill="#3A3C51"/>
<path d="M189.953 77.001C190.846 84.7673 182.525 96.0389 173.965 92.8604C173.04 92.5427 172.2 92.0165 171.511 91.3227C178.004 89.8304 184.952 84.1409 183.379 77.1049C183.307 76.8129 183.142 76.552 182.909 76.3608C182.677 76.1697 182.389 76.0584 182.088 76.0435C176.913 76.1267 171.865 79.2275 169.111 83.5663C168.462 84.5175 168.01 85.5883 167.78 86.7162C167.55 87.844 167.547 89.0063 167.772 90.1351C167.717 90.3815 167.732 90.6383 167.816 90.8766C167.899 91.1148 168.048 91.325 168.244 91.4835C168.958 92.9337 170.131 94.1083 171.58 94.8258C182.671 100.623 193.861 86.7987 192.647 76.3428C192.439 74.5768 189.754 75.256 189.953 77.001ZM171.809 84.4824C172.864 82.994 174.207 81.732 175.758 80.771C177.309 79.8099 179.038 79.1694 180.841 78.8873C181.038 83.9002 175.103 87.9155 170.363 88.759C170.331 87.2086 170.842 85.6957 171.809 84.4824Z" fill="#3A3C51"/>
</g>
<defs>
<clipPath id="clip0">
<rect width="291" height="104" fill="white" transform="translate(0 45.7031) rotate(-9.03616)"/>
</clipPath>
</defs>
</svg>

<svg xmlns="http://www.w3.org/2000/svg" width="304" height="149" fill="none" xmlns:v="https://vecta.io/nano"><g clip-path="url(#A)" fill="#3a3c51"><path d="M292.56 34.84a1.66 1.66 0 0 0-1.975-1.199c-7.83 1.766-14.75 6.392-22.53 7.736 6.894-4.8 13.717-11.866 13.028-20.147-.13-1.515-2.356-2.613-3.184-.906-6.994 14.4-25.817 12.916-39.188 11.052-9.894-1.375-19.6-3.756-29.552-4.643-11.082-.984-44.837-4.124-42.73 14.693-.443 7.48 2.07 15.762 4.652 22.8-10.04 3.9-20.233 6.8-31.103 7.995-5.078.555-10.187.986-15.302 1.2-.83-5.22-1.427-10.848-2.692-16.156l.024-.06c2.754-9.238-6.965-14.664-14.54-15.14-16.085-.973-32.042 6.6-47.354 10.4-19.308 4.752-39.47 9.27-54.423-7.15-.7-.748-2.353-.23-2.244.912 1.86 17.404 16.814 25.35 32.57 27.468C28.18 79.7 16.67 80.8 7.354 82.77a1.57 1.57 0 0 0-.632.325c-.183.155-.328.35-.423.57s-.14.46-.128.698a1.58 1.58 0 0 0 .193.683c6.817 10.9 22.595 10.1 33.76 8.95 6.17-.634 12.326-1.46 18.218-3.458 8.174-2.74 17.76-7.92 26.383-4.246.2.1.42.133.64.126a1.47 1.47 0 0 0 .632-.166c2.547 7.587 4.294 15.325 3.07 23.6-.01.4.114.8.35 1.112a1.8 1.8 0 0 0 .958.664c5.515 1.28 10.76 3.894 16.424 4.523 7.022.772 14.332-.945 21.325-1.38 14.036-.865 28.1-1.205 41.785-4.7 10.985-2.874 21.75-6.532 32.2-10.946 6.313-2.624 13.405-5.893 17.27-11.714 1.143-.148 2.145-1.288 1.38-2.5.153-.344.307-.682.435-1.04.368-1.006-.97-1.662-1.678-1.067a39.36 39.36 0 0 1-4.05-13.189c12.407.067 24.93 1.354 37.02-2.15 6.3-1.85 12.44-4.14 18.408-6.85 9.402-4.186 25.994-12.928 21.655-25.8zM169.7 43.938c6.97.416 13.788-.276 20.7-1.353 3.495-.556 7.016-1.06 10.464-1.85 1.493-.344 2.964-.797 4.467-1.08l2.973-.417c3.154 2.973 3.282 4.726.382 5.258-.932.378-1.092 1.384-.77 2.213-8.536 5.505-17.872 9.3-27.247 13.48l-5.96 2.55c-2.08-6.142-3.037-12.682-5-18.803zm-121.256 45.2c-10.75 1.928-29.676 5.756-38.044-3.83 10.4-2.106 22.46-3.83 30.02-11.668a1.45 1.45 0 0 0-.952-2.46c-14.022-1.054-29.066-6.8-32.7-21.112 11.274 10.297 24.8 10.86 39.953 8.218 11.627-2.012 23.002-5 34.323-8.317 8.295-2.44 16.842-5.48 25.626-5.157 4.57.16 9.08 1.162 11.18 5.648a12.42 12.42 0 0 1 .524 1.318 43.53 43.53 0 0 0 .033 4.792 5.46 5.46 0 0 1-1.396 1.802c-3.86 3.45-11.163 3.485-15.964 3.98-3.516.357-22.53-.598-22.507 5.2a1.31 1.31 0 0 0 .936 1.269l.208.073c1.484 4.466 3.252 8.882 4.88 13.326-11.958-3.916-24.42 4.808-36.1 6.9l-.02.02zm72.4-15.607c-3.355.063-6.726.027-10.076-.157-9.76-.533-18-2.692-26.695-6.325 1.54-.155 3.084-.362 4.64-.44 4.852-.245 9.715-.2 14.556-.633 4.523-.372 11.447-1.137 15.566-4.403.58 4.038 1.374 8.076 2.028 11.94l-.02.02zm96.235 12.596c-4.993 5.676-13.138 8.882-19.902 11.454-10.363 3.935-20.927 7.76-31.758 10.162-12.646 2.8-25.58 2.947-38.45 3.777-5.935.384-11.984 1.777-17.932 1.445-5.66-.316-10.827-2.83-16.22-4.37 1.535-13.695-3.84-29.498-10.758-41.193l.055-.01c6.007 5.714 16.328 7.44 24.092 8.258a127.95 127.95 0 0 0 15.895.599c.42.14.873.132 1.287-.02 5.585-.154 11.153-.585 16.7-1.146 13.534-1.38 26.3-5.223 38.737-10.644 10.624-4.615 23.74-8.735 32.73-16.672-1.443 5.425-.357 13.1.026 17.27.556 6.07 1.138 15.972 5.522 21.075l-.014.014zm48.06-27.3a113.45 113.45 0 0 1-16.001 5.543c-11.103 2.735-22.736 1.643-34.066 1.853-.638-7.538-.057-15.348.393-22.218a.81.81 0 0 0-.05-.312c.084-.24.073-.503-.033-.735 1.312-3.112.085-6.52-5.247-7.46-5.096-.9-11.127 1.63-16.132 2.397a156.19 156.19 0 0 1-23.923 2.039c-1.46-15.668 39.844-9.957 48.62-8.377 15.875 2.862 42.986 10.393 56.72-2.008-3.28 5.258-9.42 9.586-13.964 12.36-.286.17-.5.425-.638.73a1.53 1.53 0 0 0-.074.967c.08.322.262.6.52.82a1.54 1.54 0 0 0 .906.346c10.034.276 18.16-5.225 27.572-7.596 1.74 11.224-16.494 18.316-24.602 21.65zM98.97 127.452c-8.37 11.588-21.44 5.14-31.886.537a61.7 61.7 0 0 0-14.348-4.551c2.4-5.557 3.787-11.506 4.062-17.555a1.24 1.24 0 0 0-1.013-1.324c.027-.3-.034-.58-.175-.833s-.355-.46-.614-.6a1.45 1.45 0 0 0-1.613.213c-4.805 4.245-11.332 12.367-18.613 10.672-2.214-.517-4.324-2.182-4.744-4.508-.47-2.6 1.452-4.06 3.68-4.576a12.94 12.94 0 0 1 .377 2.372c.1 1.774 2.86 1.838 2.77.06a20.95 20.95 0 0 0-.776-4.316 1.4 1.4 0 0 0-.469-.744 1.41 1.41 0 0 0-.82-.317c-3.3.358-6.642 1.8-7.44 5.353-.675 3.02.977 6.144 3.427 7.862 8.265 5.803 17.1-3.057 23.192-8.65a46.59 46.59 0 0 1-4.11 16.482 33.08 33.08 0 0 0-15.92 2.173c-5.57 2.248-19.013 9.4-13.9 17.556 4.58 7.32 15.525 1.7 20.2-2.222a45.34 45.34 0 0 0 11.347-14.639c7.954 1.308 15.22 5.247 22.764 8.2 4.612 1.806 9.624 3.312 14.634 2.717 5.3-.614 9.33-3.754 12.388-7.984 1.013-1.422-1.375-2.825-2.408-1.388zm-57.656 8.278c-3.305 3.446-7.496 6.825-12.364 7.57-2.615.416-6.498-.087-7.088-3.272-.707-3.8 3.75-7.177 6.48-8.877 5-3.14 10.764-5.395 16.72-5.647a30.69 30.69 0 0 1 3.537.054 45.09 45.09 0 0 1-7.284 10.17zM283.668 85.5a33.08 33.08 0 0 0-15.809 2.873 47.51 47.51 0 0 1-6.613-9.205c6.352 3.367 15.807 1.908 21.12-2.316 2.4-1.92 5.606-5.482 4.818-8.888-1.03-4.466-7.198-2.936-10.13-2.004a1.46 1.46 0 0 0-1.062 1.29c-.225 1.655.495 2.163 1.5 3.22 1.2 1.304 3.2-.636 1.974-1.94a3.33 3.33 0 0 0-.368-.339c2.248-.643 5.793-1.347 5.325 1.317s-3.3 5.104-5.514 6.38c-6.1 3.555-17.22 3.73-20.53-3.646-.7-1.57-2.938-.38-2.488 1.147a1.31 1.31 0 0 0 .052.816 49.83 49.83 0 0 0 9.307 15.43 61.75 61.75 0 0 0-12.228 8.777c-8.52 7.62-18.943 17.803-30.48 9.382-1.434-1.045-3.27 1.03-1.83 2.078 4.22 3.073 9 4.8 14.254 3.747 4.944-1.005 9.238-3.985 13.07-7.122 6.254-5.148 11.94-11.147 19.097-14.858a45.34 45.34 0 0 0 15.328 10.397c5.668 2.27 17.818 4.223 19.902-4.157C304.65 88.53 289.65 85.91 283.668 85.5zm10.34 15.646c-4.858.806-9.9-1.106-14.103-3.362-3.692-2-7.088-4.482-10.1-7.408 1.095-.452 2.215-.84 3.355-1.16 5.735-1.607 11.9-1.25 17.647.18 3.125.78 8.404 2.587 8.914 6.43.42 3.206-3.12 4.9-5.733 5.323l.01-.002zm-167.092 2.6c-2.766-2.44-3.107-6.203-4.997-9.204-.36-.573-.787-1.102-1.272-1.575 1.18-3.553 2.16-7.17 2.94-10.83.4-1.745-2.254-2.5-2.662-.76-.706 3.032-1.466 6.583-2.605 9.998a9.21 9.21 0 0 0-4.906-.728c-7.376.842-9.92 9.47-7.917 15.675a1.42 1.42 0 0 0 .631.843c.3.2.683.252 1.04.174 6.2-1.356 9.866-5.963 12.3-11.43a19.72 19.72 0 0 1 1.695 3.603c.927 2.302 1.876 4.5 3.785 6.168 1.335 1.2 3.324-.753 1.98-1.935zm-19.036.534c-.936-5.423 1.962-12.704 8.674-10.667.3.088.57.203.84.343-1.915 4.676-4.774 8.74-9.515 10.318v.006zm29.083-17.477c-.9-.176-1.808-.118-2.667.17s-1.63.793-2.233 1.468c-1.2 1.36-1.562 3.124-1.567 4.9-.816.924-1.4 2.034-1.673 3.233a7.47 7.47 0 0 0 .051 3.639c.727 3.1 3.343 6.418 6.86 5.96 4.56-.6 7.23-6.85 7.365-10.862.132-3.787-2.182-7.8-6.136-8.496zm3.35 7.52c.087 1.952-.384 3.9-1.355 5.585-.663 1.266-1.607 2.88-3.044 3.4-1.914.696-3.473-1.3-4.075-2.878a5.67 5.67 0 0 1-.174-3.733 1.54 1.54 0 0 0 .68-.07 1.53 1.53 0 0 0 .581-.359c.163-.162.288-.36.365-.576a1.53 1.53 0 0 0 .077-.678c-.03-.18-.06-.377-.06-.585.34-.252.714-.458 1.1-.613 1.65-.62 1-3.316-.654-2.698l-.116.046c.148-.54.484-1 .948-1.327s1.026-.455 1.583-.393c2.393.197 3.943 2.68 4.136 4.88zm24.934-14.73a1.41 1.41 0 0 0-1.537-.675c-8.48 1.208-7.148 9.437-8.23 15.8-.148.87-.6 3.3-1.925 3.237-1.13-.05-1.644-2.54-1.865-3.37-.845-3.23-.962-6.545-1.444-9.82-.28-1.76-2.95-1.095-2.7.654.488 3.313 1.205 19.425 8.173 14.5 5.88-4.158-.34-15.572 7.207-17.96-.132.422-.3.837-.47 1.24-.6 1.686 2.07 2.434 2.66.76s.84-2.617.13-4.36zM189.953 77c.893 7.766-7.428 19.038-15.988 15.86a6.38 6.38 0 0 1-2.454-1.538c6.493-1.492 13.44-7.182 11.868-14.218-.072-.292-.237-.553-.47-.744a1.4 1.4 0 0 0-.821-.317c-5.175.083-10.223 3.184-12.977 7.523a8.63 8.63 0 0 0-1.33 3.15 8.65 8.65 0 0 0-.008 3.419 1.35 1.35 0 0 0 .044.742 1.36 1.36 0 0 0 .428.607c.714 1.45 1.887 2.625 3.336 3.342 11.1 5.797 22.28-8.027 21.067-18.483-.208-1.766-2.893-1.087-2.694.658zm-18.144 7.48a13.66 13.66 0 0 1 9.032-5.595c.197 5.013-5.738 9.028-10.478 9.872a6.64 6.64 0 0 1 1.446-4.277z"/></g><defs><clipPath id="A"><path fill="#fff" transform="matrix(.987589 -.157058 .157058 .987589 0 45.7031)" d="M0 0h291v104H0z"/></clipPath></defs></svg>
